269
albertroad.htmlalbertroad.htmlalbertroad.htmlalbertroad.htmlalbertroad.htmlalbertroad.htmlalbertroad.html<P ALIGN=Right>John Williams
albertroad.htmlalbertroad.html

T:Mason's Men, The
M:C|
L:1/8
C:John Williams
R:reel
D:Solas: Solas
Z:Devin McCabe
K:BMin
dGBd cdeg|gage f/2e/2d ec|dGBd cdeg|1effe dffe:|2effe dgge|
!:f~B3 F~B3|ceac fceg|f~B3 F~B3|1ABcd ~B3e:|2ABcd ~B3c||



albertroad.htmlalbertroad.htmlalbertroad.htmlalbertroad.htmlalbertroad.htmlalbertroad.html
0

